X:380
T: Man from Glauntaune
S: "Where's the Crack v/1" (DJ Taylor)
Z: B.Black
L: 1/8
M: 12/8
R: slide
K: G
d2 G BAG d2 G BAG|d2 G BAG c2 G e2 G|
d2 G BAG d2 G BAG|1 d=fd cBA G3 ABc :|
|2 d=fd cBA G3-G2 ||g| g2 =f d2 e f2 d c2 g|
g2 =f d2 e g2 e a2 e|g2 =f d2 g f2 d c2 e|
d=fd cBA G3-G2 :|
